pp/phone.svg

<svg viewBox="0 0 20 20" fill="none" xmlns="http://www.w3.org/2000/svg" height="1em" width="1em">
  <path fill-rule="evenodd" clip-rule="evenodd" d="M12.5208 10.1924L11.9389 10.7743C10.9366 9.8925 9.99425 8.94935 9.11168 7.94467L9.69239 7.36396C10.864 6.19239 10.864 4.2929 9.69239 3.12132L8.27818 1.70711C7.1066 0.535537 5.20711 0.535537 4.03554 1.70711L1.22986 4.51278C0.952963 4.78968 0.863168 5.20273 1.00011 5.5696C3.37438 11.9301 7.81798 16.4042 14.3082 18.882C14.6766 19.0227 15.0932 18.9337 15.372 18.6549L18.1777 15.8492C19.3492 14.6777 19.3492 12.7782 18.1777 11.6066L16.7635 10.1924C15.5919 9.02082 13.6924 9.02082 12.5208 10.1924ZM16.7635 13.0208C17.154 13.4113 17.154 14.0445 16.7635 14.435L14.4224 16.7761C8.99792 14.5464 5.24854 10.7759 3.10516 5.46592L5.44975 3.12132C5.84027 2.7308 6.47344 2.7308 6.86396 3.12132L8.27818 4.53554C8.6687 4.92606 8.6687 5.55923 8.27818 5.94975L7.04425 7.18368C6.6793 7.54863 6.65204 8.13136 6.98132 8.52879C8.30406 10.1253 9.76179 11.5841 11.3539 12.9048C11.7513 13.2344 12.3343 13.2073 12.6994 12.8422L13.935 11.6066C14.3256 11.2161 14.9587 11.2161 15.3492 11.6066L16.7635 13.0208Z" fill="currentColor"/>
</svg>

<svg viewBox="0 0 20 20" fill="none" xmlns="http://www.w3.org/2000/svg" height="1em" width="1em">
  <path fill-rule="evenodd" clip-rule="evenodd" d="m12.52 10.192-.581.582a31.121 31.121 0 0 1-2.827-2.83l.58-.58a3 3 0 0 0 0-4.243L8.278 1.707a3 3 0 0 0-4.242 0L1.23 4.513A1 1 0 0 0 1 5.57c2.374 6.36 6.818 10.834 13.308 13.312a1 1 0 0 0 1.064-.227l2.806-2.806a3 3 0 0 0 0-4.242l-1.415-1.415a3 3 0 0 0-4.242 0Zm4.244 2.829a1 1 0 0 1 0 1.414l-2.342 2.341c-5.424-2.23-9.173-6-11.317-11.31L5.45 3.12a1 1 0 0 1 1.414 0l1.414 1.415a1 1 0 0 1 0 1.414L7.044 7.184a1 1 0 0 0-.063 1.345 33.163 33.163 0 0 0 4.373 4.376 1 1 0 0 0 1.345-.063l1.236-1.235a1 1 0 0 1 1.414 0l1.415 1.414Z" fill="currentColor"/>
</svg>
